src/pos-icons/karate.svg

<svg height="24" viewBox="0 0 24 24" width="24" xmlns="http://www.w3.org/2000/svg"><path d="m19 1.27c-.96-.55-2.18-.23-2.73.73-.56.95-.23 2.18.73 2.73.95.55 2.17.23 2.73-.73.55-.96.22-2.18-.73-2.73m2.27 8.07-2.57 4.45-1.74-1 1.73-3-1.55-1.29-3.14 5.42v8.08h-2v-8.61l-9.53-5.5 1-1.73 7.8 4.5 2.4-4.16-6.39-2.33.72-1.88 6.73 2.45.27.1c.39.16.76.31 1.12.51l.84.49c.35.2.69.44 1 .7l.23.2z"/></svg>

<?xml version="1.0" encoding="UTF-8"?><!DOCTYPE svg PUBLIC "-//W3C//DTD SVG 1.1//EN" "http://www.w3.org/Graphics/SVG/1.1/DTD/svg11.dtd"><svg xmlns="http://www.w3.org/2000/svg" xmlns:xlink="http://www.w3.org/1999/xlink" version="1.1" id="mdi-karate" width="24" height="24" viewBox="0 0 24 24"><path d="M19,1.27C18.04,0.72 16.82,1.04 16.27,2C15.71,2.95 16.04,4.18 17,4.73C17.95,5.28 19.17,4.96 19.73,4C20.28,3.04 19.95,1.82 19,1.27M21.27,9.34L18.7,13.79L16.96,12.79L18.69,9.79L17.14,8.5L14,13.92V22H12V13.39L2.47,7.89L3.47,6.16L11.27,10.66L13.67,6.5L7.28,4.17L8,2.29L14.73,4.74L15,4.84C15.39,5 15.76,5.15 16.12,5.35L16.96,5.84C17.31,6.04 17.65,6.28 17.96,6.54L18.19,6.74L21.27,9.34Z" /></svg>
